(RE_V5_CC_BC_NATIVE)
(RS274/NGC controller syntax: G0/G1/G4/G17/G21/G40/G43/G49/G53/G54/G64/G80/G90/G91.1/G94/F/H/M64/M65/M30)
(Program is fed to the microkernel exactly as opened; no UI G-code rewrite)
(Program model: XYZBC five-turn cylindrical spring, radius 10mm, Z 0 to -50mm)
(B axis swings 45 +/- 10 deg during cutting; C axis rotates with the spring)

G21 G17 G90 G91.1 G40 G49 G80 G94 G54
G64 P0.500 Q0.050

(Restart-safe visible return to program beginning in machine coordinates)
G53 G0 Z0.000
(RTCP/switchkins is controlled by this G-code program only across the spring segment)
G43 H1
G4 P0.050
(Rapid rotary normalization before cutting)
G53 G0 B0.000 C0.000
G53 G0 X0.000 Y0.000

(Rapid non-cut positioning; first feed segment starts from this spring anchor)
G0 X0.000 Y10.000 Z0.000 B45.000 C0.000

(Spring start: enable RTCP before the first spring feed)
M64 P0
G4 P0.050

(Cutting trajectory: G1 sampled five-turn helix in WCS; X/C phase keeps the live current point on top)
F1500
G1 X0.000 Y10.000 Z0.000 B45.000 C0.000
G1 X-3.827 Y9.239 Z-0.625 B48.827 C-22.500
G1 X-7.071 Y7.071 Z-1.250 B52.071 C-45.000
G1 X-9.239 Y3.827 Z-1.875 B54.239 C-67.500
G1 X-10.000 Y0.000 Z-2.500 B55.000 C-90.000
G1 X-9.239 Y-3.827 Z-3.125 B54.239 C-112.500
G1 X-7.071 Y-7.071 Z-3.750 B52.071 C-135.000
G1 X-3.827 Y-9.239 Z-4.375 B48.827 C-157.500
G1 X0.000 Y-10.000 Z-5.000 B45.000 C-180.000
G1 X3.827 Y-9.239 Z-5.625 B41.173 C-202.500
G1 X7.071 Y-7.071 Z-6.250 B37.929 C-225.000
G1 X9.239 Y-3.827 Z-6.875 B35.761 C-247.500
G1 X10.000 Y0.000 Z-7.500 B35.000 C-270.000
G1 X9.239 Y3.827 Z-8.125 B35.761 C-292.500
G1 X7.071 Y7.071 Z-8.750 B37.929 C-315.000
G1 X3.827 Y9.239 Z-9.375 B41.173 C-337.500
G1 X0.000 Y10.000 Z-10.000 B45.000 C-360.000
G1 X-3.827 Y9.239 Z-10.625 B48.827 C-382.500
G1 X-7.071 Y7.071 Z-11.250 B52.071 C-405.000
G1 X-9.239 Y3.827 Z-11.875 B54.239 C-427.500
G1 X-10.000 Y0.000 Z-12.500 B55.000 C-450.000
G1 X-9.239 Y-3.827 Z-13.125 B54.239 C-472.500
G1 X-7.071 Y-7.071 Z-13.750 B52.071 C-495.000
G1 X-3.827 Y-9.239 Z-14.375 B48.827 C-517.500
G1 X0.000 Y-10.000 Z-15.000 B45.000 C-540.000
G1 X3.827 Y-9.239 Z-15.625 B41.173 C-562.500
G1 X7.071 Y-7.071 Z-16.250 B37.929 C-585.000
G1 X9.239 Y-3.827 Z-16.875 B35.761 C-607.500
G1 X10.000 Y0.000 Z-17.500 B35.000 C-630.000
G1 X9.239 Y3.827 Z-18.125 B35.761 C-652.500
G1 X7.071 Y7.071 Z-18.750 B37.929 C-675.000
G1 X3.827 Y9.239 Z-19.375 B41.173 C-697.500
G1 X0.000 Y10.000 Z-20.000 B45.000 C-720.000
G1 X-3.827 Y9.239 Z-20.625 B48.827 C-742.500
G1 X-7.071 Y7.071 Z-21.250 B52.071 C-765.000
G1 X-9.239 Y3.827 Z-21.875 B54.239 C-787.500
G1 X-10.000 Y0.000 Z-22.500 B55.000 C-810.000
G1 X-9.239 Y-3.827 Z-23.125 B54.239 C-832.500
G1 X-7.071 Y-7.071 Z-23.750 B52.071 C-855.000
G1 X-3.827 Y-9.239 Z-24.375 B48.827 C-877.500
G1 X0.000 Y-10.000 Z-25.000 B45.000 C-900.000
G1 X3.827 Y-9.239 Z-25.625 B41.173 C-922.500
G1 X7.071 Y-7.071 Z-26.250 B37.929 C-945.000
G1 X9.239 Y-3.827 Z-26.875 B35.761 C-967.500
G1 X10.000 Y0.000 Z-27.500 B35.000 C-990.000
G1 X9.239 Y3.827 Z-28.125 B35.761 C-1012.500
G1 X7.071 Y7.071 Z-28.750 B37.929 C-1035.000
G1 X3.827 Y9.239 Z-29.375 B41.173 C-1057.500
G1 X0.000 Y10.000 Z-30.000 B45.000 C-1080.000
G1 X-3.827 Y9.239 Z-30.625 B48.827 C-1102.500
G1 X-7.071 Y7.071 Z-31.250 B52.071 C-1125.000
G1 X-9.239 Y3.827 Z-31.875 B54.239 C-1147.500
G1 X-10.000 Y0.000 Z-32.500 B55.000 C-1170.000
G1 X-9.239 Y-3.827 Z-33.125 B54.239 C-1192.500
G1 X-7.071 Y-7.071 Z-33.750 B52.071 C-1215.000
G1 X-3.827 Y-9.239 Z-34.375 B48.827 C-1237.500
G1 X0.000 Y-10.000 Z-35.000 B45.000 C-1260.000
G1 X3.827 Y-9.239 Z-35.625 B41.173 C-1282.500
G1 X7.071 Y-7.071 Z-36.250 B37.929 C-1305.000
G1 X9.239 Y-3.827 Z-36.875 B35.761 C-1327.500
G1 X10.000 Y0.000 Z-37.500 B35.000 C-1350.000
G1 X9.239 Y3.827 Z-38.125 B35.761 C-1372.500
G1 X7.071 Y7.071 Z-38.750 B37.929 C-1395.000
G1 X3.827 Y9.239 Z-39.375 B41.173 C-1417.500
G1 X0.000 Y10.000 Z-40.000 B45.000 C-1440.000
G1 X-3.827 Y9.239 Z-40.625 B48.827 C-1462.500
G1 X-7.071 Y7.071 Z-41.250 B52.071 C-1485.000
G1 X-9.239 Y3.827 Z-41.875 B54.239 C-1507.500
G1 X-10.000 Y0.000 Z-42.500 B55.000 C-1530.000
G1 X-9.239 Y-3.827 Z-43.125 B54.239 C-1552.500
G1 X-7.071 Y-7.071 Z-43.750 B52.071 C-1575.000
G1 X-3.827 Y-9.239 Z-44.375 B48.827 C-1597.500
G1 X0.000 Y-10.000 Z-45.000 B45.000 C-1620.000
G1 X3.827 Y-9.239 Z-45.625 B41.173 C-1642.500
G1 X7.071 Y-7.071 Z-46.250 B37.929 C-1665.000
G1 X9.239 Y-3.827 Z-46.875 B35.761 C-1687.500
G1 X10.000 Y0.000 Z-47.500 B35.000 C-1710.000
G1 X9.239 Y3.827 Z-48.125 B35.761 C-1732.500
G1 X7.071 Y7.071 Z-48.750 B37.929 C-1755.000
G1 X3.827 Y9.239 Z-49.375 B41.173 C-1777.500
G1 X0.000 Y10.000 Z-50.000 B45.000 C-1800.000

(Spring end: release RTCP before machine-coordinate return)
M65 P0
G4 P0.050

(Machine-coordinate return)
G49
G4 P0.050
G53 G0 Z0.000
(Rapid rotary rewind after cutting)
G53 G0 B0.000 C0.000
G53 G0 X0.000 Y0.000
M30
